static/img/mobile/badges-dark.svg

<svg fill="none" height="260" viewBox="0 0 961 260" width="961" xmlns="http://www.w3.org/2000/svg"><path d="m0 0h961v260h-961z" fill="#252a2e"/><rect fill="#0063a3" height="28" rx="4" width="51" x="302.5" y="116"/><path d="m319.062 135h-1.816v-7.055h-2.326v-1.511h6.468v1.511h-2.326zm6.367-5.402c-.379 0-.676.121-.891.363-.215.238-.338.578-.369 1.019h2.508c-.008-.441-.123-.781-.346-1.019-.222-.242-.523-.363-.902-.363zm.252 5.519c-1.055 0-1.879-.291-2.473-.873s-.89-1.406-.89-2.473c0-1.097.273-1.945.82-2.542.551-.602 1.31-.903 2.279-.903.926 0 1.647.264 2.162.791.516.528.774 1.256.774 2.186v.867h-4.225c.02.508.17.904.451 1.189.282.286.676.428 1.184.428.394 0 .767-.041 1.119-.123s.719-.213 1.102-.393v1.383c-.313.157-.647.272-1.002.346-.356.078-.789.117-1.301.117zm5.617-3.463-2.11-3.205h2.028l1.271 2.086 1.283-2.086h2.028l-2.133 3.205 2.232 3.346h-2.033l-1.377-2.244-1.383 2.244h-2.027zm8.505 2.039c.313 0 .688-.068 1.125-.205v1.33c-.445.2-.992.299-1.64.299-.715 0-1.237-.179-1.565-.539-.324-.363-.486-.906-.486-1.629v-3.158h-.856v-.756l.985-.597.515-1.383h1.143v1.394h1.834v1.342h-1.834v3.158c0 .254.07.442.211.563.144.121.334.181.568.181z" fill="#fff"/><rect fill="#6a6e79" height="28" rx="4" width="51" x="363.5" y="116"/><path d="m380.062 135h-1.816v-7.055h-2.326v-1.511h6.468v1.511h-2.326zm6.367-5.402c-.379 0-.676.121-.891.363-.215.238-.338.578-.369 1.019h2.508c-.008-.441-.123-.781-.346-1.019-.222-.242-.523-.363-.902-.363zm.252 5.519c-1.055 0-1.879-.291-2.473-.873s-.89-1.406-.89-2.473c0-1.097.273-1.945.82-2.542.551-.602 1.31-.903 2.279-.903.926 0 1.647.264 2.162.791.516.528.774 1.256.774 2.186v.867h-4.225c.02.508.17.904.451 1.189.282.286.676.428 1.184.428.394 0 .767-.041 1.119-.123s.719-.213 1.102-.393v1.383c-.313.157-.647.272-1.002.346-.356.078-.789.117-1.301.117zm5.617-3.463-2.11-3.205h2.028l1.271 2.086 1.283-2.086h2.028l-2.133 3.205 2.232 3.346h-2.033l-1.377-2.244-1.383 2.244h-2.027zm8.505 2.039c.313 0 .688-.068 1.125-.205v1.33c-.445.2-.992.299-1.64.299-.715 0-1.237-.179-1.565-.539-.324-.363-.486-.906-.486-1.629v-3.158h-.856v-.756l.985-.597.515-1.383h1.143v1.394h1.834v1.342h-1.834v3.158c0 .254.07.442.211.563.144.121.334.181.568.181z" fill="#fff"/><rect fill="#cbcdd6" height="28" rx="4" width="51" x="424.5" y="116"/><path d="m441.062 135h-1.816v-7.055h-2.326v-1.511h6.468v1.511h-2.326zm6.367-5.402c-.379 0-.676.121-.891.363-.215.238-.338.578-.369 1.019h2.508c-.008-.441-.123-.781-.346-1.019-.222-.242-.523-.363-.902-.363zm.252 5.519c-1.055 0-1.879-.291-2.473-.873s-.89-1.406-.89-2.473c0-1.097.273-1.945.82-2.542.551-.602 1.31-.903 2.279-.903.926 0 1.647.264 2.162.791.516.528.774 1.256.774 2.186v.867h-4.225c.02.508.17.904.451 1.189.282.286.676.428 1.184.428.394 0 .767-.041 1.119-.123s.719-.213 1.102-.393v1.383c-.313.157-.647.272-1.002.346-.356.078-.789.117-1.301.117zm5.617-3.463-2.11-3.205h2.028l1.271 2.086 1.283-2.086h2.028l-2.133 3.205 2.232 3.346h-2.033l-1.377-2.244-1.383 2.244h-2.027zm8.505 2.039c.313 0 .688-.068 1.125-.205v1.33c-.445.2-.992.299-1.64.299-.715 0-1.237-.179-1.565-.539-.324-.363-.486-.906-.486-1.629v-3.158h-.856v-.756l.985-.597.515-1.383h1.143v1.394h1.834v1.342h-1.834v3.158c0 .254.07.442.211.563.144.121.334.181.568.181z" fill="#252a2e"/><rect fill="#1e8a44" height="28" rx="4" width="51" x="485.5" y="116"/><path d="m502.062 135h-1.816v-7.055h-2.326v-1.511h6.468v1.511h-2.326zm6.367-5.402c-.379 0-.676.121-.891.363-.215.238-.338.578-.369 1.019h2.508c-.008-.441-.123-.781-.346-1.019-.222-.242-.523-.363-.902-.363zm.252 5.519c-1.055 0-1.879-.291-2.473-.873s-.89-1.406-.89-2.473c0-1.097.273-1.945.82-2.542.551-.602 1.31-.903 2.279-.903.926 0 1.647.264 2.162.791.516.528.774 1.256.774 2.186v.867h-4.225c.02.508.17.904.451 1.189.282.286.676.428 1.184.428.394 0 .767-.041 1.119-.123s.719-.213 1.102-.393v1.383c-.313.157-.647.272-1.002.346-.356.078-.789.117-1.301.117zm5.617-3.463-2.11-3.205h2.028l1.271 2.086 1.283-2.086h2.028l-2.133 3.205 2.232 3.346h-2.033l-1.377-2.244-1.383 2.244h-2.027zm8.505 2.039c.313 0 .688-.068 1.125-.205v1.33c-.445.2-.992.299-1.64.299-.715 0-1.237-.179-1.565-.539-.324-.363-.486-.906-.486-1.629v-3.158h-.856v-.756l.985-.597.515-1.383h1.143v1.394h1.834v1.342h-1.834v3.158c0 .254.07.442.211.563.144.121.334.181.568.181z" fill="#fff"/><rect fill="#fbad26" height="28" rx="4" width="51" x="546.5" y="116"/><path d="m563.062 135h-1.816v-7.055h-2.326v-1.511h6.468v1.511h-2.326zm6.367-5.402c-.379 0-.676.121-.891.363-.215.238-.338.578-.369 1.019h2.508c-.008-.441-.123-.781-.346-1.019-.222-.242-.523-.363-.902-.363zm.252 5.519c-1.055 0-1.879-.291-2.473-.873s-.89-1.406-.89-2.473c0-1.097.273-1.945.82-2.542.551-.602 1.31-.903 2.279-.903.926 0 1.647.264 2.162.791.516.528.774 1.256.774 2.186v.867h-4.225c.02.508.17.904.451 1.189.282.286.676.428 1.184.428.394 0 .767-.041 1.119-.123s.719-.213 1.102-.393v1.383c-.313.157-.647.272-1.002.346-.356.078-.789.117-1.301.117zm5.617-3.463-2.11-3.205h2.028l1.271 2.086 1.283-2.086h2.028l-2.133 3.205 2.232 3.346h-2.033l-1.377-2.244-1.383 2.244h-2.027zm8.505 2.039c.313 0 .688-.068 1.125-.205v1.33c-.445.2-.992.299-1.64.299-.715 0-1.237-.179-1.565-.539-.324-.363-.486-.906-.486-1.629v-3.158h-.856v-.756l.985-.597.515-1.383h1.143v1.394h1.834v1.342h-1.834v3.158c0 .254.07.442.211.563.144.121.334.181.568.181z" fill="#252a2e"/><rect fill="#da212c" height="28" rx="4" width="51" x="607.5" y="116"/><path d="m624.062 135h-1.816v-7.055h-2.326v-1.511h6.468v1.511h-2.326zm6.367-5.402c-.379 0-.676.121-.891.363-.215.238-.338.578-.369 1.019h2.508c-.008-.441-.123-.781-.346-1.019-.222-.242-.523-.363-.902-.363zm.252 5.519c-1.055 0-1.879-.291-2.473-.873s-.89-1.406-.89-2.473c0-1.097.273-1.945.82-2.542.551-.602 1.31-.903 2.279-.903.926 0 1.647.264 2.162.791.516.528.774 1.256.774 2.186v.867h-4.225c.02.508.17.904.451 1.189.282.286.676.428 1.184.428.394 0 .767-.041 1.119-.123s.719-.213 1.102-.393v1.383c-.313.157-.647.272-1.002.346-.356.078-.789.117-1.301.117zm5.617-3.463-2.11-3.205h2.028l1.271 2.086 1.283-2.086h2.028l-2.133 3.205 2.232 3.346h-2.033l-1.377-2.244-1.383 2.244h-2.027zm8.505 2.039c.313 0 .688-.068 1.125-.205v1.33c-.445.2-.992.299-1.64.299-.715 0-1.237-.179-1.565-.539-.324-.363-.486-.906-.486-1.629v-3.158h-.856v-.756l.985-.597.515-1.383h1.143v1.394h1.834v1.342h-1.834v3.158c0 .254.07.442.211.563.144.121.334.181.568.181z" fill="#fff"/></svg>

<svg width="961" height="260" viewBox="0 0 961 260" fill="none" xmlns="http://www.w3.org/2000/svg">
<rect width="961" height="260" fill="#252A2E"/>
<rect x="302.5" y="116" width="51" height="28" rx="4" fill="#0063A3"/>
<path d="M319.062 135H317.246V127.945H314.92V126.434H321.388V127.945H319.062V135ZM325.429 129.598C325.05 129.598 324.753 129.719 324.538 129.961C324.323 130.199 324.2 130.539 324.169 130.98H326.677C326.669 130.539 326.554 130.199 326.331 129.961C326.109 129.719 325.808 129.598 325.429 129.598ZM325.681 135.117C324.626 135.117 323.802 134.826 323.208 134.244C322.614 133.662 322.318 132.838 322.318 131.771C322.318 130.674 322.591 129.826 323.138 129.229C323.689 128.627 324.448 128.326 325.417 128.326C326.343 128.326 327.064 128.59 327.579 129.117C328.095 129.645 328.353 130.373 328.353 131.303V132.17H324.128C324.148 132.678 324.298 133.074 324.579 133.359C324.861 133.645 325.255 133.787 325.763 133.787C326.157 133.787 326.53 133.746 326.882 133.664C327.234 133.582 327.601 133.451 327.984 133.271V134.654C327.671 134.811 327.337 134.926 326.982 135C326.626 135.078 326.193 135.117 325.681 135.117ZM331.298 131.654L329.188 128.449H331.216L332.487 130.535L333.77 128.449H335.798L333.665 131.654L335.897 135H333.864L332.487 132.756L331.104 135H329.077L331.298 131.654ZM339.803 133.693C340.116 133.693 340.491 133.625 340.928 133.488V134.818C340.483 135.018 339.936 135.117 339.288 135.117C338.573 135.117 338.051 134.938 337.723 134.578C337.399 134.215 337.237 133.672 337.237 132.949V129.791H336.381V129.035L337.366 128.438L337.881 127.055H339.024V128.449H340.858V129.791H339.024V132.949C339.024 133.203 339.094 133.391 339.235 133.512C339.379 133.633 339.569 133.693 339.803 133.693Z" fill="white"/>
<rect x="363.5" y="116" width="51" height="28" rx="4" fill="#6A6E79"/>
<path d="M380.062 135H378.246V127.945H375.92V126.434H382.388V127.945H380.062V135ZM386.429 129.598C386.05 129.598 385.753 129.719 385.538 129.961C385.323 130.199 385.2 130.539 385.169 130.98H387.677C387.669 130.539 387.554 130.199 387.331 129.961C387.109 129.719 386.808 129.598 386.429 129.598ZM386.681 135.117C385.626 135.117 384.802 134.826 384.208 134.244C383.614 133.662 383.318 132.838 383.318 131.771C383.318 130.674 383.591 129.826 384.138 129.229C384.689 128.627 385.448 128.326 386.417 128.326C387.343 128.326 388.064 128.59 388.579 129.117C389.095 129.645 389.353 130.373 389.353 131.303V132.17H385.128C385.148 132.678 385.298 133.074 385.579 133.359C385.861 133.645 386.255 133.787 386.763 133.787C387.157 133.787 387.53 133.746 387.882 133.664C388.234 133.582 388.601 133.451 388.984 133.271V134.654C388.671 134.811 388.337 134.926 387.982 135C387.626 135.078 387.193 135.117 386.681 135.117ZM392.298 131.654L390.188 128.449H392.216L393.487 130.535L394.77 128.449H396.798L394.665 131.654L396.897 135H394.864L393.487 132.756L392.104 135H390.077L392.298 131.654ZM400.803 133.693C401.116 133.693 401.491 133.625 401.928 133.488V134.818C401.483 135.018 400.936 135.117 400.288 135.117C399.573 135.117 399.051 134.938 398.723 134.578C398.399 134.215 398.237 133.672 398.237 132.949V129.791H397.381V129.035L398.366 128.438L398.881 127.055H400.024V128.449H401.858V129.791H400.024V132.949C400.024 133.203 400.094 133.391 400.235 133.512C400.379 133.633 400.569 133.693 400.803 133.693Z" fill="white"/>
<rect x="424.5" y="116" width="51" height="28" rx="4" fill="#CBCDD6"/>
<path d="M441.062 135H439.246V127.945H436.92V126.434H443.388V127.945H441.062V135ZM447.429 129.598C447.05 129.598 446.753 129.719 446.538 129.961C446.323 130.199 446.2 130.539 446.169 130.98H448.677C448.669 130.539 448.554 130.199 448.331 129.961C448.109 129.719 447.808 129.598 447.429 129.598ZM447.681 135.117C446.626 135.117 445.802 134.826 445.208 134.244C444.614 133.662 444.318 132.838 444.318 131.771C444.318 130.674 444.591 129.826 445.138 129.229C445.689 128.627 446.448 128.326 447.417 128.326C448.343 128.326 449.064 128.59 449.579 129.117C450.095 129.645 450.353 130.373 450.353 131.303V132.17H446.128C446.148 132.678 446.298 133.074 446.579 133.359C446.861 133.645 447.255 133.787 447.763 133.787C448.157 133.787 448.53 133.746 448.882 133.664C449.234 133.582 449.601 133.451 449.984 133.271V134.654C449.671 134.811 449.337 134.926 448.982 135C448.626 135.078 448.193 135.117 447.681 135.117ZM453.298 131.654L451.188 128.449H453.216L454.487 130.535L455.77 128.449H457.798L455.665 131.654L457.897 135H455.864L454.487 132.756L453.104 135H451.077L453.298 131.654ZM461.803 133.693C462.116 133.693 462.491 133.625 462.928 133.488V134.818C462.483 135.018 461.936 135.117 461.288 135.117C460.573 135.117 460.051 134.938 459.723 134.578C459.399 134.215 459.237 133.672 459.237 132.949V129.791H458.381V129.035L459.366 128.438L459.881 127.055H461.024V128.449H462.858V129.791H461.024V132.949C461.024 133.203 461.094 133.391 461.235 133.512C461.379 133.633 461.569 133.693 461.803 133.693Z" fill="#252A2E"/>
<rect x="485.5" y="116" width="51" height="28" rx="4" fill="#1E8A44"/>
<path d="M502.062 135H500.246V127.945H497.92V126.434H504.388V127.945H502.062V135ZM508.429 129.598C508.05 129.598 507.753 129.719 507.538 129.961C507.323 130.199 507.2 130.539 507.169 130.98H509.677C509.669 130.539 509.554 130.199 509.331 129.961C509.109 129.719 508.808 129.598 508.429 129.598ZM508.681 135.117C507.626 135.117 506.802 134.826 506.208 134.244C505.614 133.662 505.318 132.838 505.318 131.771C505.318 130.674 505.591 129.826 506.138 129.229C506.689 128.627 507.448 128.326 508.417 128.326C509.343 128.326 510.064 128.59 510.579 129.117C511.095 129.645 511.353 130.373 511.353 131.303V132.17H507.128C507.148 132.678 507.298 133.074 507.579 133.359C507.861 133.645 508.255 133.787 508.763 133.787C509.157 133.787 509.53 133.746 509.882 133.664C510.234 133.582 510.601 133.451 510.984 133.271V134.654C510.671 134.811 510.337 134.926 509.982 135C509.626 135.078 509.193 135.117 508.681 135.117ZM514.298 131.654L512.188 128.449H514.216L515.487 130.535L516.77 128.449H518.798L516.665 131.654L518.897 135H516.864L515.487 132.756L514.104 135H512.077L514.298 131.654ZM522.803 133.693C523.116 133.693 523.491 133.625 523.928 133.488V134.818C523.483 135.018 522.936 135.117 522.288 135.117C521.573 135.117 521.051 134.938 520.723 134.578C520.399 134.215 520.237 133.672 520.237 132.949V129.791H519.381V129.035L520.366 128.438L520.881 127.055H522.024V128.449H523.858V129.791H522.024V132.949C522.024 133.203 522.094 133.391 522.235 133.512C522.379 133.633 522.569 133.693 522.803 133.693Z" fill="white"/>
<rect x="546.5" y="116" width="51" height="28" rx="4" fill="#FBAD26"/>
<path d="M563.062 135H561.246V127.945H558.92V126.434H565.388V127.945H563.062V135ZM569.429 129.598C569.05 129.598 568.753 129.719 568.538 129.961C568.323 130.199 568.2 130.539 568.169 130.98H570.677C570.669 130.539 570.554 130.199 570.331 129.961C570.109 129.719 569.808 129.598 569.429 129.598ZM569.681 135.117C568.626 135.117 567.802 134.826 567.208 134.244C566.614 133.662 566.318 132.838 566.318 131.771C566.318 130.674 566.591 129.826 567.138 129.229C567.689 128.627 568.448 128.326 569.417 128.326C570.343 128.326 571.064 128.59 571.579 129.117C572.095 129.645 572.353 130.373 572.353 131.303V132.17H568.128C568.148 132.678 568.298 133.074 568.579 133.359C568.861 133.645 569.255 133.787 569.763 133.787C570.157 133.787 570.53 133.746 570.882 133.664C571.234 133.582 571.601 133.451 571.984 133.271V134.654C571.671 134.811 571.337 134.926 570.982 135C570.626 135.078 570.193 135.117 569.681 135.117ZM575.298 131.654L573.188 128.449H575.216L576.487 130.535L577.77 128.449H579.798L577.665 131.654L579.897 135H577.864L576.487 132.756L575.104 135H573.077L575.298 131.654ZM583.803 133.693C584.116 133.693 584.491 133.625 584.928 133.488V134.818C584.483 135.018 583.936 135.117 583.288 135.117C582.573 135.117 582.051 134.938 581.723 134.578C581.399 134.215 581.237 133.672 581.237 132.949V129.791H580.381V129.035L581.366 128.438L581.881 127.055H583.024V128.449H584.858V129.791H583.024V132.949C583.024 133.203 583.094 133.391 583.235 133.512C583.379 133.633 583.569 133.693 583.803 133.693Z" fill="#252A2E"/>
<rect x="607.5" y="116" width="51" height="28" rx="4" fill="#DA212C"/>
<path d="M624.062 135H622.246V127.945H619.92V126.434H626.388V127.945H624.062V135ZM630.429 129.598C630.05 129.598 629.753 129.719 629.538 129.961C629.323 130.199 629.2 130.539 629.169 130.98H631.677C631.669 130.539 631.554 130.199 631.331 129.961C631.109 129.719 630.808 129.598 630.429 129.598ZM630.681 135.117C629.626 135.117 628.802 134.826 628.208 134.244C627.614 133.662 627.318 132.838 627.318 131.771C627.318 130.674 627.591 129.826 628.138 129.229C628.689 128.627 629.448 128.326 630.417 128.326C631.343 128.326 632.064 128.59 632.579 129.117C633.095 129.645 633.353 130.373 633.353 131.303V132.17H629.128C629.148 132.678 629.298 133.074 629.579 133.359C629.861 133.645 630.255 133.787 630.763 133.787C631.157 133.787 631.53 133.746 631.882 133.664C632.234 133.582 632.601 133.451 632.984 133.271V134.654C632.671 134.811 632.337 134.926 631.982 135C631.626 135.078 631.193 135.117 630.681 135.117ZM636.298 131.654L634.188 128.449H636.216L637.487 130.535L638.77 128.449H640.798L638.665 131.654L640.897 135H638.864L637.487 132.756L636.104 135H634.077L636.298 131.654ZM644.803 133.693C645.116 133.693 645.491 133.625 645.928 133.488V134.818C645.483 135.018 644.936 135.117 644.288 135.117C643.573 135.117 643.051 134.938 642.723 134.578C642.399 134.215 642.237 133.672 642.237 132.949V129.791H641.381V129.035L642.366 128.438L642.881 127.055H644.024V128.449H645.858V129.791H644.024V132.949C644.024 133.203 644.094 133.391 644.235 133.512C644.379 133.633 644.569 133.693 644.803 133.693Z" fill="white"/>
</svg>
